X: 1
T: the Bishop
O: Thompson's Compleat Collection, v.4 p.72 #144 (1780)
M: 6/8
L: 1/8
K: G
|: "G"g3 d3 | B3 G2D | "C"EGE "D7"FAF | "G"GBc "D7"def \
|  "G"g3 d3 | B3 G2D | "C"EGE "D7"FAF | "G"G3 [G3B,3G,3] :|
|: "G"ded bgd | "D7"cdc afc | "G"BcB gdB | "D7"AFD AFD \
|  "G"ded bgd | "D7"cdc afc | "G"BcB "D7"cAF | "G"G3 [G3B,3G,3] :|
